icons/ruler-line.svg

<svg xmlns="http://www.w3.org/2000/svg" width="24" height="24" fill="none"><g clip-path="url(#a)"><g><path fill="#121212" d="M6.34301 14.621L3.51501 17.45L7.05001 20.985L20.485 7.55001L16.95 4.01501L14.828 6.13601L16.243 7.55001L14.828 8.96401L13.414 7.55001L11.293 9.67201L13.414 11.792L12 13.208L9.87901 11.087L7.75701 13.208L9.17201 14.622L7.75701 16.037L6.34301 14.622V14.621ZM17.657 1.89301L22.607 6.84301C22.7945 7.03053 22.8998 7.28484 22.8998 7.55001C22.8998 7.81517 22.7945 8.06948 22.607 8.25701L7.75701 23.107C7.56948 23.2945 7.31517 23.3998 7.05001 23.3998C6.78484 23.3998 6.53053 23.2945 6.34301 23.107L1.39301 18.157C1.20554 17.9695 1.10022 17.7152 1.10022 17.45C1.10022 17.1848 1.20554 16.9305 1.39301 16.743L16.243 1.89301C16.4305 1.70554 16.6848 1.60022 16.95 1.60022C17.2152 1.60022 17.4695 1.70554 17.657 1.89301Z"/></g></g><defs><clipPath id="a"><rect width="24" height="24" fill="white"/></clipPath></defs></svg>

<svg width="24" height="24" fill="none" xmlns="http://www.w3.org/2000/svg"><g clip-path="url(#a)"><path d="M6.343 14.621 3.515 17.45l3.535 3.535L20.485 7.55 16.95 4.015l-2.122 2.121 1.415 1.414-1.415 1.414-1.414-1.414-2.121 2.122 2.121 2.12L12 13.208l-2.121-2.121-2.122 2.121 1.415 1.414-1.415 1.415-1.414-1.415v-.001ZM17.657 1.893l4.95 4.95a1 1 0 0 1 0 1.414l-14.85 14.85a1 1 0 0 1-1.414 0l-4.95-4.95a1 1 0 0 1 0-1.414l14.85-14.85a1 1 0 0 1 1.414 0Z" /></g><defs><clipPath id="a"><path fill="#fff" d="M0 0h24v24H0z"/></clipPath></defs></svg>
